server/views/icons/social/tripadvisor.svg

<svg viewBox="0 0 28 19"><circle class="icon__shape" fill="#1d1d1d" cx="7.7" cy="10.6" r="1"/><circle class="icon__shape" fill="#1d1d1d" cx="19.9" cy="10.6" r="1"/><path class="icon__shape" fill="#1d1d1d" d="M7.9 7.6c-1.6 0-2.9 1.3-2.9 3 0 1.6 1.3 2.9 2.9 2.9 1.6 0 2.9-1.3 2.9-2.9 0-1.7-1.3-3-2.9-3zm0 5c-1.1 0-2-.9-2-2s.9-2 2-2 2 .9 2 2-.9 2-2 2zm18.2-8h-4C20 3.2 17.2 2.4 14 2.4c-3.2 0-6.2.9-8.3 2.3H1.9C2.5 5.4 3 6.4 3.1 7c-.7 1-1.2 2.2-1.2 3.5 0 3.3 2.7 6 6 6 1.9 0 3.6-.9 4.7-2.2.5.5 1.2 1.6 1.4 1.9 0 0 .9-1.3 1.4-1.9 1.1 1.4 2.8 2.2 4.7 2.2 3.3 0 6-2.7 6-6 0-1.3-.4-2.6-1.2-3.5.1-.6.6-1.6 1.2-2.4zM8 15.4c-2.7 0-4.9-2.2-4.9-4.9S5.3 5.6 8 5.6s4.9 2.2 4.9 4.9c-.1 2.8-2.3 4.9-4.9 4.9zM8 4.5c1.7-.8 3.9-1.2 6-1.2 2.2 0 4.1.4 5.9 1.2-3.3.1-5.9 2.8-5.9 6 0-3.3-2.7-6-6-6zm12 10.9c-2.7 0-4.9-2.2-4.9-4.9s2.2-4.9 4.9-4.9 4.9 2.2 4.9 4.9c0 2.8-2.2 4.9-4.9 4.9zm0-7.8c-1.6 0-2.9 1.3-2.9 2.9 0 1.6 1.3 2.9 2.9 2.9 1.6 0 2.9-1.3 2.9-2.9.1-1.6-1.2-2.9-2.9-2.9zm0 5c-1.1 0-2-.9-2-2s.9-2 2-2 2 .9 2 2c.1 1.1-.8 2-2 2z"/></svg>

<svg viewBox="0 0 28 19"><circle class="icon__shape" fill="#1d1d1d" cx="7.7" cy="10.6" r="1"/><circle class="icon__shape" fill="#1d1d1d" cx="19.9" cy="10.6" r="1"/><path class="icon__shape" fill="#1d1d1d" d="M7.9,7.6C6.3,7.6,5,8.9,5,10.6c0,1.6,1.3,2.9,2.9,2.9c1.6,0,2.9-1.3,2.9-2.9C10.8,8.9,9.5,7.6,7.9,7.6z M7.9,12.6c-1.1,0-2-0.9-2-2c0-1.1,0.9-2,2-2c1.1,0,2,0.9,2,2C9.9,11.7,9,12.6,7.9,12.6z M26.1,4.6h-4C20,3.2,17.2,2.4,14,2.4
c-3.2,0-6.2,0.9-8.3,2.3H1.9C2.5,5.4,3,6.4,3.1,7c-0.7,1-1.2,2.2-1.2,3.5c0,3.3,2.7,6,6,6c1.9,0,3.6-0.9,4.7-2.2
c0.5,0.5,1.2,1.6,1.4,1.9c0,0,0.9-1.3,1.4-1.9c1.1,1.4,2.8,2.2,4.7,2.2c3.3,0,6-2.7,6-6c0-1.3-0.4-2.6-1.2-3.5
C25,6.4,25.5,5.4,26.1,4.6z M8,15.4c-2.7,0-4.9-2.2-4.9-4.9c0-2.7,2.2-4.9,4.9-4.9s4.9,2.2,4.9,4.9C12.8,13.3,10.6,15.4,8,15.4z
M8,4.5c1.7-0.8,3.9-1.2,6-1.2c2.2,0,4.1,0.4,5.9,1.2c-3.3,0.1-5.9,2.8-5.9,6C14,7.2,11.3,4.5,8,4.5z M20,15.4
c-2.7,0-4.9-2.2-4.9-4.9c0-2.7,2.2-4.9,4.9-4.9c2.7,0,4.9,2.2,4.9,4.9C24.9,13.3,22.7,15.4,20,15.4z M20,7.6
c-1.6,0-2.9,1.3-2.9,2.9c0,1.6,1.3,2.9,2.9,2.9c1.6,0,2.9-1.3,2.9-2.9C23,8.9,21.7,7.6,20,7.6z M20,12.6c-1.1,0-2-0.9-2-2
c0-1.1,0.9-2,2-2s2,0.9,2,2C22.1,11.7,21.2,12.6,20,12.6z"/></svg>
